X:16
T:Courento (10)
C:Trad.
C:Transcr. : Maurizio Padovan
Z:Transcrit et/ou corrig par Michel BELLON - 2007-01-30
Z:Pour toute observation mailto:galouvielle@free.fr
M:2/4
L:1/8
K:D
P:"miro"
(3ABc | (3ABc (3ABc | e2 e>f | ed cB | c/B/A (3ABc | (3ABc (3ABc | e2 ef | ed cB | A2
"pizz".e.e |: .e "arco"A cB/c/ | c/B/A "pizz".e.e | .e "arco"A cB | c/B/A AB/c/ | dd ef |1
g/f/e e/f/g/f/ | ed cB | A2 "pizz".e.e :|2 g/f/e fg/f/ | ed ef | d2 ||
%%footer $D   Galouvielle-MBe 2007 \n-- (Italie (occitane))
